X:5097
T:Farrell O'Gara
M:4/4
L:1/8
R:reel
K:D
DB,||:A,D (3DDD) A,DFA|BFAF EFGA|dBcA B2 AF|GEFD EDB,D|A,D (3DDD) A,DFA|
BFAF EFGA|
dBcA B2 AF|1 GFEG FDDB,:|2 GFEG FDDe||:fd (3ddd) fdgd|fdgf edBc|dB{d}BA
Bcde|
{a}fedf ef{a}ge|1 fd (3ddd) fdgd|fdgf edBc|dB{d}BA {d}BAGF|GFEG FDDe:|2
fa{b}af edBA|
dfed BAFD|A,3B, DEFA|BFAF D2 B,D||


